!!!OTL: ES FREIT EIN WILDER WASSERMANN
!!!ARE: Europa, Mitteleuropa, Deutschland, Schlesien, Goldberg, Neukirch
!!!SCT: E0001A
!!!YEM: Copyright 1995, estate of Helmut Schaffrath.
**kern
*ICvox
*Ivox
*M2/4
*k[b-]
*F:
{8c
=1
8f
8f
8f
8a
=2
8cc
8a
4f}
=3
{8a
8cc
8cc
8cc
=4
8ff
8cc
8a}
{8a
=5
4cc
16dd
16cc
16b-
16a
=6
4g
8r}
{8g
=7
8f
8a
8cc
8a
=8
8g
8a
8b-}
{16g
16g
=9
8f
8a
16cc
16b-
8g
=10
4f
8r}
==
!!!AGN: Sage, Maerchen -, Zauber - Lied, Ballade ?
!!!ONB: ESAC (Essen Associative Code) Database: ERK1
!!!AMT: simple duple
!!!AIN: vox
!!!EED: Helmut Schaffrath
!!!EEV: 1.0
*-
